X:141
T:
S:Uppt. efter änkan Pettersson i Klintehamn.
M:3/4
L:1/8
K:Am
E2 A2 A2|A2 ^G2 z2|E> A (A^G) A B|c2 B2 z2|
w:Brim-sar u brum-mar~— kat-tu slar_ up-pa trum-mar.
G> c c d e> c|c B B3 d|c A c B A ^G|
w:Fäm-ten käl-liŋ-gar äut-äi ’n dans, u al-lä dans-tä di pa
^G2 A2 z B|c> G c d e> c|c> B B3 d|
w:kryk-kar. De komm ’n blin-dar kal u sag där-pa: »Jer
c> A (cB) A ^G|B2 A2 z2|]
w:dan-sar nätt,_ mäi-nä flik-kar».
